src/assets/cards/5S.svg

<svg clip-rule="evenodd" fill-rule="evenodd" stroke-linejoin="round" stroke-miterlimit="2" viewBox="0 0 934 1300" xmlns="http://www.w3.org/2000/svg"><g fill-rule="nonzero"><path d="m35.69 156.804 13.41-.113c2.559 8.091 8.216 16.358 15.906 18.628 21.714 5.106 35.701-7.024 40.305-21.024 5.582-16.972-.126-40.806-15.078-49.274-12.394-7.024-30.809-1.104-39.251 13.899l-9.409-5.745 5.043-55.922h61.379v13.221h-49.738l-.777 23.295c10.687-7.514 27.158-7.439 37.858-2.17 20.259 9.659 29.68 31.637 25.728 57.54-5.456 25.766-17.486 40.368-44.657 42.463-30.182.263-40.844-20.498-40.719-34.798z"/><path d="m897.643 1143.21-13.422.11c-2.547-8.1-8.217-16.36-15.894-18.64-21.714-5.1-35.701 7.02-40.304 21.02-5.583 16.98.125 40.82 15.065 49.29 12.407 7.03 30.821 1.11 39.264-13.91l9.408 5.75-5.055 55.92h-61.367v-13.21h49.738l.778-23.3c-10.688 7.51-27.158 7.43-37.859 2.16-20.271-9.66-29.679-31.62-25.741-57.54 5.47-25.76 17.487-40.35 44.658-42.45 30.194-.26 40.857 20.49 40.731 34.79z"/><path d="m225.867 287.967c.083-8.442-6.583-8.604-6.542-2.442-.541 30.954-26.708 46.196-45.75 42.579-29.291-5.575-38.666-34.675-38.375-51.816.875-52.9 54.125-91.909 102.167-159.725 35.208 61.212 93.333 109.287 96.75 156.608 4.583 62.908-75.042 86.371-86.375 13.05-.75-5.179-6.833-7.504-6.375-.271 1.708 20.096-.75 28.467 21.958 78h-59.291c13.125-23.146 20.958-51.562 21.833-75.983z"/><path d="m687.034 287.967c.083-8.442-6.584-8.604-6.5-2.442-.584 30.954-26.75 46.196-45.75 42.579-29.334-5.575-38.709-34.675-38.417-51.816.875-52.9 54.125-91.909 102.167-159.725 35.208 61.212 93.333 109.287 96.75 156.608 4.583 62.908-75.042 86.371-86.375 13.05-.75-5.179-6.834-7.504-6.375-.271 1.708 20.096-.709 28.467 21.958 78h-59.292c13.125-23.146 20.959-51.562 21.834-75.983z"/><path d="m457.783 697.71c.083-8.441-6.625-8.6-6.542-2.441-.541 30.954-26.708 46.196-45.75 42.579-29.291-5.575-38.666-34.675-38.375-51.813.875-52.904 54.125-91.912 102.167-159.729 35.208 61.213 93.333 109.292 96.75 156.609 4.583 62.908-75.042 86.375-86.417 13.054-.708-5.179-6.833-7.509-6.333-.271 1.708 20.092-.75 28.462 21.917 77.996h-59.25c13.125-23.146 20.958-51.563 21.833-75.984z"/><path d="m225.909 1012.03c.083 8.44-6.584 8.6-6.5 2.44-.584-30.949-26.75-46.191-45.792-42.574-29.292 5.571-38.667 34.674-38.375 51.814.875 52.9 54.125 91.91 102.167 159.73 35.208-61.21 93.333-109.29 96.75-156.61 4.583-62.909-75.042-86.376-86.375-13.06-.75 5.18-6.834 7.51-6.375.28 1.708-20.096-.75-28.467 21.958-78h-59.292c13.125 23.146 20.959 51.558 21.834 75.98z"/><path d="m687.117 1012.03c.042 8.44-6.625 8.6-6.542 2.44-.583-30.949-26.75-46.191-45.75-42.574-29.333 5.571-38.708 34.674-38.416 51.814.875 52.9 54.125 91.91 102.166 159.73 35.209-61.21 93.334-109.29 96.75-156.61 4.584-62.909-75-86.376-86.375-13.06-.75 5.18-6.833 7.51-6.375.28 1.709-20.096-.708-28.467 21.959-78h-59.25c13.125 23.146 20.916 51.558 21.833 75.98z"/><path d="m75.553 290.638c.041-3.633-3.709-1.937-4.209-.796-4.875 8.275-11.958 10.2-18.958 7.217-6.958-2.954-10.833-9.5-10.25-18.842 1.333-14.325 12.667-30 18.167-38.858 5.208-8.042 10.958-17.592 17-29.808 7.041 14.012 10.666 18 18.333 30.795 6.792 11.271 16.208 22.305 16.958 35.93 0 10.35-4.375 20.129-14.166 21.912-5.542 1.008-10.75-1.842-14.584-8.487-1.166-1.692-3.541-.813-3.5 1.508.667 8.721 3.959 16.596 11.792 25.883h-28.708c5.875-6.566 11.875-15.433 12.125-26.454z"/><path d="m853.511 1010.41c.042 3.63-3.708 1.94-4.208.8-4.875-8.28-11.959-10.21-18.959-7.22-6.958 2.95-10.875 9.5-10.25 18.84 1.292 14.32 12.667 30 18.167 38.86 5.208 8.04 10.958 17.59 16.958 29.81 7.084-14.02 10.667-18 18.375-30.8 6.792-11.27 16.209-22.3 16.959-35.93 0-10.35-4.375-20.13-14.167-21.91-5.542-1.01-10.75 1.84-14.625 8.49-1.167 1.69-3.5.81-3.5-1.51.708-8.72 4-16.598 11.833-25.885h-28.708c5.875 6.566 11.875 15.433 12.125 26.455z"/></g></svg>

<?xml version="1.0" encoding="UTF-8" standalone="no"?>
<!DOCTYPE svg PUBLIC "-//W3C//DTD SVG 1.1//EN" "http://www.w3.org/Graphics/SVG/1.1/DTD/svg11.dtd">
<svg width="100%" height="100%" viewBox="0 0 934 1300" version="1.1" xmlns="http://www.w3.org/2000/svg" xmlns:xlink="http://www.w3.org/1999/xlink" xml:space="preserve" xmlns:serif="http://www.serif.com/" style="fill-rule:evenodd;clip-rule:evenodd;stroke-linejoin:round;stroke-miterlimit:2;">
    <g id="_5S" serif:id="5S">
        <g id="path7106-3">
            <path d="M35.69,156.804L49.1,156.691C51.659,164.782 57.316,173.049 65.006,175.319C86.72,180.425 100.707,168.295 105.311,154.295C110.893,137.323 105.185,113.489 90.233,105.021C77.839,97.997 59.424,103.917 50.982,118.92L41.573,113.175L46.616,57.253L107.995,57.253L107.995,70.474L58.257,70.474L57.48,93.769C68.167,86.255 84.638,86.33 95.338,91.599C115.597,101.258 125.018,123.236 121.066,149.139C115.61,174.905 103.58,189.507 76.409,191.602C46.227,191.865 35.565,171.104 35.69,156.804Z" style="fill-rule:nonzero;"/>
        </g>
        <g id="path7122-4">
            <path d="M897.643,1143.21L884.221,1143.32C881.674,1135.22 876.004,1126.96 868.327,1124.68C846.613,1119.58 832.626,1131.7 828.023,1145.7C822.44,1162.68 828.148,1186.52 843.088,1194.99C855.495,1202.02 873.909,1196.1 882.352,1181.08L891.76,1186.83L886.705,1242.75L825.338,1242.75L825.338,1229.54L875.076,1229.54L875.854,1206.24C865.166,1213.75 848.696,1213.67 837.995,1208.4C817.724,1198.74 808.316,1176.78 812.254,1150.86C817.724,1125.1 829.741,1110.51 856.912,1108.41C887.106,1108.15 897.769,1128.9 897.643,1143.2L897.643,1143.21Z" style="fill-rule:nonzero;"/>
        </g>
        <g id="path3202">
            <path d="M225.867,287.967C225.95,279.525 219.284,279.363 219.325,285.525C218.784,316.479 192.617,331.721 173.575,328.104C144.284,322.529 134.909,293.429 135.2,276.288C136.075,223.388 189.325,184.379 237.367,116.563C272.575,177.775 330.7,225.85 334.117,273.171C338.7,336.079 259.075,359.542 247.742,286.221C246.992,281.042 240.909,278.717 241.367,285.95C243.075,306.046 240.617,314.417 263.325,363.95L204.034,363.95C217.159,340.804 224.992,312.388 225.867,287.967Z" style="fill-rule:nonzero;"/>
        </g>
        <g id="path3204">
            <path d="M687.034,287.967C687.117,279.525 680.45,279.363 680.534,285.525C679.95,316.479 653.784,331.721 634.784,328.104C605.45,322.529 596.075,293.429 596.367,276.288C597.242,223.388 650.492,184.379 698.534,116.563C733.742,177.775 791.867,225.85 795.284,273.171C799.867,336.079 720.242,359.542 708.909,286.221C708.159,281.042 702.075,278.717 702.534,285.95C704.242,306.046 701.825,314.417 724.492,363.95L665.2,363.95C678.325,340.804 686.159,312.388 687.034,287.967Z" style="fill-rule:nonzero;"/>
        </g>
        <g id="path3206">
            <path d="M457.783,697.71C457.866,689.269 451.158,689.11 451.241,695.269C450.7,726.223 424.533,741.465 405.491,737.848C376.2,732.273 366.825,703.173 367.116,686.035C367.991,633.131 421.241,594.123 469.283,526.306C504.491,587.519 562.616,635.598 566.033,682.915C570.616,745.823 490.991,769.29 479.616,695.969C478.908,690.79 472.783,688.46 473.283,695.698C474.991,715.79 472.533,724.16 495.2,773.694L435.95,773.694C449.075,750.548 456.908,722.131 457.783,697.71Z" style="fill-rule:nonzero;"/>
        </g>
        <g id="path3264">
            <path d="M225.909,1012.03C225.992,1020.47 219.325,1020.63 219.409,1014.47C218.825,983.521 192.659,968.279 173.617,971.896C144.325,977.467 134.95,1006.57 135.242,1023.71C136.117,1076.61 189.367,1115.62 237.409,1183.44C272.617,1122.23 330.742,1074.15 334.159,1026.83C338.742,963.921 259.117,940.454 247.784,1013.77C247.034,1018.95 240.95,1021.28 241.409,1014.05C243.117,993.954 240.659,985.583 263.367,936.05L204.075,936.05C217.2,959.196 225.034,987.608 225.909,1012.03L225.909,1012.03Z" style="fill-rule:nonzero;"/>
        </g>
        <g id="path3266">
            <path d="M687.117,1012.03C687.159,1020.47 680.492,1020.63 680.575,1014.47C679.992,983.521 653.825,968.279 634.825,971.896C605.492,977.467 596.117,1006.57 596.409,1023.71C597.284,1076.61 650.534,1115.62 698.575,1183.44C733.784,1122.23 791.909,1074.15 795.325,1026.83C799.909,963.921 720.325,940.454 708.95,1013.77C708.2,1018.95 702.117,1021.28 702.575,1014.05C704.284,993.954 701.867,985.583 724.534,936.05L665.284,936.05C678.409,959.196 686.2,987.608 687.117,1012.03L687.117,1012.03Z" style="fill-rule:nonzero;"/>
        </g>
        <g id="path3316">
            <path d="M75.553,290.638C75.594,287.005 71.844,288.701 71.344,289.842C66.469,298.117 59.386,300.042 52.386,297.059C45.428,294.105 41.553,287.559 42.136,278.217C43.469,263.892 54.803,248.217 60.303,239.359C65.511,231.317 71.261,221.767 77.303,209.551C84.344,223.563 87.969,227.551 95.636,240.346C102.428,251.617 111.844,262.651 112.594,276.276C112.594,286.626 108.219,296.405 98.428,298.188C92.886,299.196 87.678,296.346 83.844,289.701C82.678,288.009 80.303,288.888 80.344,291.209C81.011,299.93 84.303,307.805 92.136,317.092L63.428,317.092C69.303,310.526 75.303,301.659 75.553,290.638Z" style="fill-rule:nonzero;"/>
        </g>
        <g id="path3338">
            <path d="M853.511,1010.41C853.553,1014.04 849.803,1012.35 849.303,1011.21C844.428,1002.93 837.344,1001 830.344,1003.99C823.386,1006.94 819.469,1013.49 820.094,1022.83C821.386,1037.15 832.761,1052.83 838.261,1061.69C843.469,1069.73 849.219,1079.28 855.219,1091.5C862.303,1077.48 865.886,1073.5 873.594,1060.7C880.386,1049.43 889.803,1038.4 890.553,1024.77C890.553,1014.42 886.178,1004.64 876.386,1002.86C870.844,1001.85 865.636,1004.7 861.761,1011.35C860.594,1013.04 858.261,1012.16 858.261,1009.84C858.969,1001.12 862.261,993.242 870.094,983.955L841.386,983.955C847.261,990.521 853.261,999.388 853.511,1010.41Z" style="fill-rule:nonzero;"/>
        </g>
    </g>
</svg>
